X: 9177
T: Dálaigh's
R: polka
M: 2/4
K: Edorian
|:E>F GA|Be ed|Bc/B/ AF|EF D2|
E/D/E/F/ GA|Be ed|Bc/B/ AF|FE E2:|
|:Be e>f|af ed|Be e>f|af d2|
Be e>f|af ed|Bc/B/ AF|1 FE E2:|2 FE ED||

